icons/communication/email-smile-24.svg

<svg width="24" height="24" viewBox="0 0 24 24" fill="none" xmlns="http://www.w3.org/2000/svg">
<path fill-rule="evenodd" clip-rule="evenodd" d="M0 4.75C0 3.7835 0.783502 3 1.75 3H22.25C23.2165 3 24 3.7835 24 4.75V11.375C24 11.7892 23.6642 12.125 23.25 12.125C22.8358 12.125 22.5 11.7892 22.5 11.375V7.18716L12.7516 11.8231C12.276 12.0492 11.724 12.0492 11.2484 11.8231L1.5 7.18715V18.75C1.5 18.8881 1.61193 19 1.75 19H9.25C9.66421 19 10 19.3358 10 19.75C10 20.1642 9.66421 20.5 9.25 20.5H1.75C0.783502 20.5 0 19.7165 0 18.75V4.75ZM1.5 5.52618L11.8926 10.4685C11.9606 10.5008 12.0394 10.5008 12.1074 10.4685L22.5 5.52618V4.75C22.5 4.61193 22.3881 4.5 22.25 4.5H1.75C1.61193 4.5 1.5 4.61193 1.5 4.75V5.52618Z" fill="black"/>
<path d="M16.7495 16C16.7495 16.5523 16.3018 17 15.7495 17C15.1972 17 14.7495 16.5523 14.7495 16C14.7495 15.4477 15.1972 15 15.7495 15C16.3018 15 16.7495 15.4477 16.7495 16Z" fill="black"/>
<path d="M21.7495 17C22.3018 17 22.7495 16.5523 22.7495 16C22.7495 15.4477 22.3018 15 21.7495 15C21.1972 15 20.7495 15.4477 20.7495 16C20.7495 16.5523 21.1972 17 21.7495 17Z" fill="black"/>
<path d="M15.8114 19.2532C15.5382 18.9442 15.0664 18.9137 14.7556 19.1856C14.4439 19.4583 14.4132 19.9331 14.686 20.2449L14.6869 20.246L14.6893 20.2486L14.6955 20.2556L14.7138 20.2757C14.7287 20.2918 14.7489 20.3132 14.7743 20.3392C14.825 20.391 14.8968 20.4611 14.9888 20.5434C15.1723 20.7075 15.439 20.9224 15.7825 21.1365C16.4684 21.5641 17.4796 22 18.7495 22C20.0194 22 21.0307 21.5641 21.7166 21.1365C22.0601 20.9224 22.3268 20.7075 22.5103 20.5434C22.6022 20.4611 22.8036 20.2556 22.8036 20.2556L22.814 20.2439C23.0867 19.9321 23.0551 19.4583 22.7434 19.1856C22.4327 18.9137 21.9608 18.9442 21.6877 19.2532L21.6833 19.258C21.6779 19.2638 21.6677 19.2746 21.653 19.2897C21.6234 19.3199 21.5755 19.367 21.5103 19.4254C21.3793 19.5425 21.1812 19.7026 20.9231 19.8635C20.4059 20.1859 19.6671 20.5 18.7495 20.5C17.8319 20.5 17.0932 20.1859 16.576 19.8635C16.3179 19.7026 16.1197 19.5425 15.9888 19.4254C15.9235 19.367 15.8757 19.3199 15.8461 19.2897C15.8313 19.2746 15.8212 19.2638 15.8158 19.258L15.8114 19.2532Z" fill="black"/>
</svg>

<svg xmlns="http://www.w3.org/2000/svg" width="24" height="24"><path fill-rule="evenodd" d="M0 4.75C0 3.784.784 3 1.75 3h20.5c.966 0 1.75.784 1.75 1.75v6.625a.75.75 0 01-1.5 0V7.187l-9.748 4.636a1.75 1.75 0 01-1.504 0L1.5 7.187V18.75c0 .138.112.25.25.25h7.5a.75.75 0 010 1.5h-7.5A1.75 1.75 0 010 18.75v-14zm1.5.776l10.393 4.943a.25.25 0 00.214 0L22.5 5.526V4.75a.25.25 0 00-.25-.25H1.75a.25.25 0 00-.25.25v.776z"/><path d="M16.75 16a1 1 0 11-2 0 1 1 0 012 0zm5 1a1 1 0 100-2 1 1 0 000 2zm-5.939 2.253a.75.75 0 00-1.125.992v.001l.003.003.006.007.019.02.06.063a5.8 5.8 0 001.008.797A5.594 5.594 0 0018.75 22c1.27 0 2.28-.436 2.967-.863a5.8 5.8 0 00.793-.594c.092-.082.294-.287.294-.287l.01-.012a.75.75 0 00-1.126-.99l-.005.004a2.05 2.05 0 01-.173.167c-.13.117-.329.278-.587.438a4.095 4.095 0 01-2.173.637 4.094 4.094 0 01-2.174-.637 4.3 4.3 0 01-.73-.573 1.648 1.648 0 01-.03-.032l-.005-.005z"/></svg>
